src/camera.svg

<svg viewBox="0 0 16 16" fill="none" xmlns="http://www.w3.org/2000/svg"><path d="M11.25 3.5L10.5 2.5H5.5L4.75 3.5H1V13.5H15V3.5H11.25ZM14 12.5H2V4.5H5.25L6 3.5H10L10.75 4.5H14V12.5Z" fill="#111111"/><path d="M8 5.5C7.40666 5.5 6.82664 5.67595 6.33329 6.00559C5.83994 6.33524 5.45542 6.80377 5.22836 7.35195C5.0013 7.90013 4.94189 8.50333 5.05764 9.08527C5.1734 9.66721 5.45912 10.2018 5.87868 10.6213C6.29824 11.0409 6.83279 11.3266 7.41473 11.4424C7.99667 11.5581 8.59987 11.4987 9.14805 11.2716C9.69623 11.0446 10.1648 10.6601 10.4944 10.1667C10.8241 9.67336 11 9.09334 11 8.5C11 7.70435 10.6839 6.94129 10.1213 6.37868C9.55871 5.81607 8.79565 5.5 8 5.5ZM8 10.5C7.60444 10.5 7.21776 10.3827 6.88886 10.1629C6.55996 9.94318 6.30362 9.63082 6.15224 9.26537C6.00087 8.89991 5.96126 8.49778 6.03843 8.10982C6.1156 7.72186 6.30608 7.36549 6.58579 7.08579C6.86549 6.80608 7.22186 6.6156 7.60982 6.53843C7.99778 6.46126 8.39991 6.50087 8.76537 6.65224C9.13082 6.80362 9.44318 7.05996 9.66294 7.38886C9.8827 7.71776 10 8.10444 10 8.5C10 9.03043 9.78929 9.53914 9.41421 9.91421C9.03914 10.2893 8.53043 10.5 8 10.5Z" fill="#111111"/><path d="M13 5.5H12V6.5H13V5.5Z" fill="#111111"/></svg>

<svg viewBox="0 0 16 16" fill="none" xmlns="http://www.w3.org/2000/svg"><path d="m11.25 3.5-.75-1h-5l-.75 1H1v10h14v-10h-3.75Zm2.75 9H2v-8h3.25l.75-1h4l.75 1H14v8Z" fill="#111111"/><path d="M8 5.5a3 3 0 1 0 0 6 3 3 0 0 0 0-6Zm0 5a2 2 0 1 1 0-4 2 2 0 0 1 0 4Zm5-5h-1v1h1v-1Z" fill="#111111"/></svg>
